casedrop/img/footer/icons/upgrade.svg

<svg width="36" height="36" viewBox="0 0 36 36" fill="none" xmlns="http://www.w3.org/2000/svg">
<g clip-path="url(#clip0_4044_897)">
<path d="M23.625 27H12.375C11.7783 27 11.206 27.2371 10.784 27.659C10.3621 28.081 10.125 28.6533 10.125 29.25V31.5C10.125 32.0967 10.3621 32.669 10.784 33.091C11.206 33.5129 11.7783 33.75 12.375 33.75H23.625C24.2217 33.75 24.794 33.5129 25.216 33.091C25.6379 32.669 25.875 32.0967 25.875 31.5V29.25C25.875 28.6533 25.6379 28.081 25.216 27.659C24.794 27.2371 24.2217 27 23.625 27ZM23.625 31.5H12.375V29.25H23.625V31.5Z" fill="#2B56E8"/>
<path d="M32.2954 16.0797L18.7954 2.57966C18.691 2.47515 18.567 2.39225 18.4305 2.33568C18.294 2.27912 18.1477 2.25 18 2.25C17.8523 2.25 17.706 2.27912 17.5695 2.33568C17.433 2.39225 17.309 2.47515 17.2046 2.57966L3.70463 16.0797C3.54734 16.237 3.44024 16.4374 3.39685 16.6556C3.35346 16.8738 3.37574 17.1 3.46087 17.3055C3.546 17.5111 3.69015 17.6867 3.87511 17.8104C4.06007 17.934 4.27754 18 4.5 18H10.125V22.5C10.1257 23.0966 10.363 23.6685 10.7848 24.0903C11.2066 24.5121 11.7785 24.7494 12.375 24.75H23.625C24.2215 24.7492 24.7933 24.5119 25.2151 24.0901C25.6369 23.6684 25.8742 23.0965 25.875 22.5V18H31.5C31.7225 18 31.9399 17.934 32.1249 17.8104C32.3099 17.6867 32.454 17.5111 32.5391 17.3055C32.6243 17.1 32.6465 16.8738 32.6032 16.6556C32.5598 16.4374 32.4527 16.237 32.2954 16.0797ZM23.625 15.75V22.5H12.375V15.75H7.21587L18 4.9659L28.7841 15.75H23.625Z" fill="#2B56E8"/>
</g>
<defs>
<clipPath id="clip0_4044_897">
<rect width="36" height="36" fill="white"/>
</clipPath>
</defs>
</svg>

<svg width="36" height="36" fill="none" xmlns="http://www.w3.org/2000/svg"><g clip-path="url(#clip0_4044_897)" fill="#2B56E8"><path d="M23.625 27h-11.25a2.25 2.25 0 00-2.25 2.25v2.25a2.25 2.25 0 002.25 2.25h11.25a2.25 2.25 0 002.25-2.25v-2.25a2.25 2.25 0 00-2.25-2.25zm0 4.5h-11.25v-2.25h11.25v2.25zm8.67-15.42l-13.5-13.5a1.124 1.124 0 00-1.59 0l-13.5 13.5A1.125 1.125 0 004.5 18h5.625v4.5a2.253 2.253 0 002.25 2.25h11.25a2.253 2.253 0 002.25-2.25V18H31.5a1.125 1.125 0 00.795-1.92zm-8.67-.33v6.75h-11.25v-6.75h-5.16L18 4.966 28.784 15.75h-5.159z"/></g><defs><clipPath id="clip0_4044_897"><path fill="#fff" d="M0 0h36v36H0z"/></clipPath></defs></svg>
